!!!COM: Arthur Honegger
!!!OTL: [T609_Hon-w42p9-10h4m1-9]
**kern	**dynam	**kern	**dynam	**kern	**dynam	**kern	**dynam	**kern	**dynam	**kern	**dynam	**kern	**dynam	**kern	**dynam	**kern	**dynam	**kern	**dynam	**kern	**dynam	**kern	**dynam
*grp:A	*grp:A	*grp:A	*grp:A	*grp:A	*grp:A	*grp:A	*grp:A	*grp:A	*grp:A	*grp:A	*grp:A	*grp:B	*grp:B	*grp:B	*grp:B	*grp:B	*grp:B	*grp:B	*grp:B	*grp:B	*grp:B	*grp:B	*grp:B
*part12	*	*part11	*	*part10	*	*part9	*	*part8	*	*part7	*	*part6	*	*part5	*	*part4	*	*part3	*	*part2	*	*part1	*
*staff12	*	*staff11	*	*staff10	*	*staff9	*	*staff8	*	*staff7	*	*staff6	*	*staff5	*	*staff4	*	*staff3	*	*staff2	*	*staff1	*
*I"Violoncello	*	*I"Violin II	*	*I"Violin I	*	*I"Trumpet 3 [C]	*	*I"Trumpet 2 [C]	*	*I"Trumpet 1 [C]	*	*I"Horns 3-4 [C]	*	*I"Horns 1-2 [C]	*	*I"Clarinet [C]	*	*I"English Horn [C]	*	*I"Oboe	*	*I"Flute	*
*I'Vc.	*	*I'Vln. II	*	*I'Vln. I	*	*I'Tpt.	*	*I'Tpt.	*	*I'Tpt.	*	*I'Hn.	*	*I'Hn.	*	*I'Cl.	*	*I'E.H.	*	*I'Ob.	*	*I'Fl.	*
!!pagebreak:original
*clefF4	*	*clefG2	*	*clefG2	*	*clefG2	*	*clefG2	*	*clefG2	*	*clefG2	*	*clefG2	*	*clefG2	*	*clefG2	*	*clefG2	*	*clefG2	*
*	*	*	*	*	*	*	*	*	*	*	*	*	*	*	*	*	*	*	*	*	*	*	*
*k[]	*	*k[]	*	*k[]	*	*k[]	*	*k[]	*	*k[]	*	*k[]	*	*k[]	*	*k[]	*	*k[]	*	*k[]	*	*k[]	*
*	*	*	*	*	*	*	*	*	*	*	*	*	*	*	*	*	*	*	*	*	*	*	*
*M3/4	*	*M3/4	*	*M3/4	*	*M3/4	*	*M3/4	*	*M3/4	*	*M3/4	*	*M3/4	*	*M3/4	*	*M3/4	*	*M3/4	*	*M3/4	*
=1	=1	=1	=1	=1	=1	=1	=1	=1	=1	=1	=1	=1	=1	=1	=1	=1	=1	=1	=1	=1	=1	=1	=1
!	!	!	!	!	!	!	!	!	!	!	!	!	!	!	!	!	!	!	!	!	!	!LO:TX:t=[quarter]=152	!
!	!	!	!LO:DY:ed=brack	!	!	!	!LO:DY:ed=brack	!	!LO:DY:ed=brack	!	!LO:DY:ed=brack	!LO:TX:t=P:problem:Cross-measure beaming not implemwnted yet	!LO:DY:ed=brack	!LO:TX:t=P:problem:Cross-measure beaming not implemwnted yet	!LO:DY:ed=brack	!LO:TX:t=P:problem:Cross-measure beaming not implemwnted yet	!LO:DY:ed=brack	!LO:TX:t=P:problem:Cross-measure beaming not implemwnted yet	!LO:DY:ed=brack	!LO:TX:t=P:problem:Cross-measure beaming not implemwnted yet	!LO:DY:ed=brack	!LO:TX:t=P:problem:Cross-measure beaming not implemwnted yet	!LO:DY:ed=brack
4%3ryy	.	2ryy	4ryy	4%3ryy	.	8ryy	4ryy	8ryy	4ryy	8ryy	4ryy	8dL 8a-X	f	8fL 8bX	f	8gg-XL 8aa-X	f	8ffL	f	8bbL 8ddd	f	8fffL 8ggg-X	f
.	.	.	.	.	.	8ryy	.	8ryy	.	8ryy	.	8d 8a-	.	8f 8b	.	8gg- 8aa-	.	8ff	.	8bb 8ddd	.	8fff 8ggg-	.
.	.	.	.	.	.	4ryy	.	4ryy	.	4ryy	.	8dJ 8a-	.	8fJ 8b	.	8gg-J 8aa-	.	8ffJ	.	8bbJ 8ddd	.	8fffJ 8ggg-	.
.	.	.	.	.	.	.	.	.	.	.	.	8r	.	8r	.	8r	.	8r	.	8r	.	8r	.
.	.	4ryy	.	.	.	8ryy	.	8ryy	.	8ryy	.	8dL 8a-	.	8fL 8b	.	8gg-L 8aa-	.	8ffL	.	8bbL 8ddd	.	8fffL 8ggg-	.
.	.	.	.	.	.	8ryy	.	8ryy	.	8ryy	.	8d 8a-	.	8f 8b	.	8gg- 8aa-	.	8ff	.	8bb 8ddd	.	8fff 8ggg-	.
=2	=2	=2	=2	=2	=2	=2	=2	=2	=2	=2	=2	=2	=2	=2	=2	=2	=2	=2	=2	=2	=2	=2	=2
4%3ryy	.	8ryy	.	4%3ryy	.	4ryy	.	4ryy	.	4ryy	.	8dJ 8a-X	.	8fJ 8bX	.	8gg-XJ 8aa-X	.	8ffJ	.	8bbJ 8ddd	.	8fffJ 8ggg-X	.
.	.	8ryy	.	.	.	.	.	.	.	.	.	8r	.	8r	.	8r	.	8r	.	8r	.	8r	.
.	.	4ryy	.	.	.	8ryy	.	8ryy	.	8ryy	.	8dL 8a-	.	8fL 8b	.	8gg-L 8aa-	.	8ffL	.	8bbL 8ddd	.	8fffL 8ggg-	.
.	.	.	.	.	.	8ryy	.	8ryy	.	8ryy	.	8d 8a-	.	8f 8b	.	8gg- 8aa-	.	8ff	.	8bb 8ddd	.	8fff 8ggg-	.
.	.	4ryy	.	.	.	4ryy	.	4ryy	.	4ryy	.	8dJ 8a-	.	8fJ 8b	.	8gg-J 8aa-	.	8ffJ	.	8bbJ 8ddd	.	8fffJ 8ggg-	.
.	.	.	.	.	.	.	.	.	.	.	.	8r	.	8r	.	8r	.	8r	.	8r	.	8r	.
*clefC4	*	*	*	*	*	*	*	*	*	*	*	*	*	*	*	*	*	*	*	*	*	*	*
=3	=3	=3	=3	=3	=3	=3	=3	=3	=3	=3	=3	=3	=3	=3	=3	=3	=3	=3	=3	=3	=3	=3	=3
!	!LO:DY:ed=brack	!	!	!	!	!	!	!	!	!	!	!	!	!	!	!	!	!	!	!	!	!	!
2ryy	4ryy	4ryy	.	4%3ryy	.	8ryy	.	8ryy	.	8ryy	.	8dL 8a-X	.	8fL 8bX	.	8gg-XL 8aa-X	.	8ffL	.	8bbL 8ddd	.	8fffL 8ggg-X	.
.	.	.	.	.	.	8ryy	.	8ryy	.	8ryy	.	8d 8a-	.	8f 8b	.	8gg- 8aa-	.	8ff	.	8bb 8ddd	.	8fff 8ggg-	.
.	.	2ryy	.	.	.	4ryy	.	4ryy	.	4ryy	.	8dJ 8a-	.	8fJ 8b	.	8gg-J 8aa-	.	8ffJ	.	8bbJ 8ddd	.	8fffJ 8ggg-	.
.	.	.	.	.	.	.	.	.	.	.	.	8r	.	8r	.	8r	.	8r	.	8r	.	8r	.
4ryy	.	.	.	.	.	8ryy	.	8ryy	.	8ryy	.	8dL 8a-	.	8fL 8b	.	8gg-L 8aa-	.	8ffL	.	8bbL 8ddd	.	8fffL 8ggg-	.
.	.	.	.	.	.	8ryy	.	8ryy	.	8ryy	.	8d 8a-	.	8f 8b	.	8gg- 8aa-	.	8ff	.	8bb 8ddd	.	8fff 8ggg-	.
=4	=4	=4	=4	=4	=4	=4	=4	=4	=4	=4	=4	=4	=4	=4	=4	=4	=4	=4	=4	=4	=4	=4	=4
8ryy	.	4ryy	.	4ryy	.	4ryy	.	4ryy	.	4ryy	.	8dJ 8a-X	.	8fJ 8bX	.	8gg-XJ 8aa-X	.	8ffJ	.	8bbJ 8ddd	.	8fffJ 8ggg-X	.
8ryy	.	.	.	.	.	.	.	.	.	.	.	8r	.	8r	.	8r	.	8r	.	8r	.	8r	.
!	!	!	!	!	!LO:DY:ed=brack	!	!	!	!	!	!	!	!	!	!	!	!	!	!	!	!	!	!
4ryy	.	8ryy	.	2ryy	4ryy	8ryy	.	8ryy	.	8ryy	.	8dL 8a-	.	8fL 8b	.	8gg-L 8aa-	.	8ffL	.	8bbL 8ddd	.	8fffL 8ggg-	.
.	.	8ryy	.	.	.	8ryy	.	8ryy	.	8ryy	.	8d 8a-	.	8f 8b	.	8gg- 8aa-	.	8ff	.	8bb 8ddd	.	8fff 8ggg-	.
4ryy	.	4ryy	.	.	.	4ryy	.	4ryy	.	4ryy	.	8dJ 8a-	.	8fJ 8b	.	8gg-J 8aa-	.	8ffJ	.	8bbJ 8ddd	.	8fffJ 8ggg-	.
.	.	.	.	.	.	.	.	.	.	.	.	8r	.	8r	.	8r	.	8r	.	8r	.	8r	.
!!pagebreak:original
=5	=5	=5	=5	=5	=5	=5	=5	=5	=5	=5	=5	=5	=5	=5	=5	=5	=5	=5	=5	=5	=5	=5	=5
8ryy	.	4%3ryy	.	2ryy	.	8ryy	.	8ryy	.	8ryy	.	8dL 8a-X	.	8fL 8bX	.	8gg-XL 8aa-X	.	8ffL	.	8bbL 8ddd	.	8fffL 8ggg-X	.
8ryy	.	.	.	.	.	8ryy	.	8ryy	.	8ryy	.	8d 8a-	.	8f 8b	.	8gg- 8aa-	.	8ff	.	8bb 8ddd	.	8fff 8ggg-	.
4ryy	.	.	.	.	.	4ryy	.	4ryy	.	4ryy	.	8dJ 8a-	.	8fJ 8b	.	8gg-J 8aa-	.	8ffJ	.	8bbJ 8ddd	.	8fffJ 8ggg-	.
.	.	.	.	.	.	.	.	.	.	.	.	8r	.	8r	.	8r	.	8r	.	8r	.	8r	.
4ryy	.	.	.	4ryy	.	8ryy	.	8ryy	.	8ryy	.	8dL 8a-	.	8fL 8b	.	8gg-L 8aa-	.	8ffL	.	8bbL 8ddd	.	8fffL 8ggg-	.
.	.	.	.	.	.	8ryy	.	8ryy	.	8ryy	.	8d 8a-	.	8f 8b	.	8gg- 8aa-	.	8ff	.	8bb 8ddd	.	8fff 8ggg-	.
=6	=6	=6	=6	=6	=6	=6	=6	=6	=6	=6	=6	=6	=6	=6	=6	=6	=6	=6	=6	=6	=6	=6	=6
2ryy	.	4%3ryy	.	8ryy	.	4ryy	.	4ryy	.	4ryy	.	8dJ 8a-X	.	8fJ 8bX	.	8gg-XJ 8aa-X	.	8ffJ	.	8bbJ 8ddd	.	8fffJ 8ggg-X	.
.	.	.	.	8ryy	.	.	.	.	.	.	.	8r	.	8r	.	8r	.	8r	.	8r	.	8r	.
.	.	.	.	4ryy	.	8ryy	.	8ryy	.	8ryy	.	8dL 8a-	.	8fL 8b	.	8gg-L 8aa-	.	8ffL	.	8bbL 8ddd	.	8fffL 8ggg-	.
.	.	.	.	.	.	8ryy	.	8ryy	.	8ryy	.	8d 8a-	.	8f 8b	.	8gg- 8aa-	.	8ff	.	8bb 8ddd	.	8fff 8ggg-	.
4ryy	.	.	.	4ryy	.	4ryy	.	4ryy	.	4ryy	.	8dJ 8a-	.	8fJ 8b	.	8gg-J 8aa-	.	8ffJ	.	8bbJ 8ddd	.	8fffJ 8ggg-	.
.	.	.	.	.	.	.	.	.	.	.	.	8r	.	8r	.	8r	.	8r	.	8r	.	8r	.
=7	=7	=7	=7	=7	=7	=7	=7	=7	=7	=7	=7	=7	=7	=7	=7	=7	=7	=7	=7	=7	=7	=7	=7
8ryy	.	2ryy	.	2ryy	.	8ryy	.	8ryy	.	8ryy	.	8dL 8a-X	.	8fL 8bX	.	8gg-XL 8aa-X	.	8ffL	.	8bbL 8ddd	.	8fffL 8ggg-X	.
8ryy	.	.	.	.	.	8ryy	.	8ryy	.	8ryy	.	8d 8a-	.	8f 8b	.	8gg- 8aa-	.	8ff	.	8bb 8ddd	.	8fff 8ggg-	.
4ryy	.	.	.	.	.	4ryy	.	4ryy	.	4ryy	.	8dJ 8a-	.	8fJ 8b	.	8gg-J 8aa-	.	8ffJ	.	8bbJ 8ddd	.	8fffJ 8ggg-	.
.	.	.	.	.	.	.	.	.	.	.	.	8r	.	8r	.	8r	.	8r	.	8r	.	8r	.
4ryy	.	4ryy	.	4ryy	.	8ryy	.	8ryy	.	8ryy	.	8dL 8a-	.	8fL 8b	.	8gg-L 8aa-	.	8ffL	.	8bbL 8ddd	.	8fffL 8ggg-	.
.	.	.	.	.	.	8ryy	.	8ryy	.	8ryy	.	8d 8a-	.	8f 8b	.	8gg- 8aa-	.	8ff	.	8bb 8ddd	.	8fff 8ggg-	.
=8	=8	=8	=8	=8	=8	=8	=8	=8	=8	=8	=8	=8	=8	=8	=8	=8	=8	=8	=8	=8	=8	=8	=8
2ryy	.	8ryy	.	8ryy	.	4ryy	.	4ryy	.	4ryy	.	8dJ 8a-X	.	8fJ 8bX	.	8gg-XJ 8aa-X	.	8ffJ	.	8bbJ 8ddd	.	8fffJ 8ggg-X	.
.	.	8ryy	.	8ryy	.	.	.	.	.	.	.	8r	.	8r	.	8r	.	8r	.	8r	.	8r	.
.	.	4ryy	.	4ryy	.	8ryy	.	8ryy	.	8ryy	.	8dL 8a-	.	8fL 8b	.	8gg-L 8aa-	.	8ffL	.	8bbL 8ddd	.	8fffL 8ggg-	.
.	.	.	.	.	.	8ryy	.	8ryy	.	8ryy	.	8d 8a-	.	8f 8b	.	8gg- 8aa-	.	8ff	.	8bb 8ddd	.	8fff 8ggg-	.
4ryy	.	4ryy	.	4ryy	.	4ryy	.	4ryy	.	4ryy	.	8dJ 8a-	.	8fJ 8b	.	8gg-J 8aa-	.	8ffJ	.	8bbJ 8ddd	.	8fffJ 8ggg-	.
.	.	.	.	.	.	.	.	.	.	.	.	8r	.	8r	.	8r	.	8r	.	8r	.	8r	.
=9	=9	=9	=9	=9	=9	=9	=9	=9	=9	=9	=9	=9	=9	=9	=9	=9	=9	=9	=9	=9	=9	=9	=9
8ryy	.	4ryy	.	4ryy	.	8ryy	.	8ryy	.	8ryy	.	8dL 8a-X	.	8fL 8bX	.	8gg-XL 8aa-X	.	8ffL	.	8bbL 8ddd	.	8fffL 8ggg-X	.
8ryy	.	.	.	.	.	8ryy	.	8ryy	.	8ryy	.	8d 8a-	.	8f 8b	.	8gg- 8aa-	.	8ff	.	8bb 8ddd	.	8fff 8ggg-	.
4ryy	.	2ryy	.	2ryy	.	4ryy	.	4ryy	.	4ryy	.	8dJ 8a-	.	8fJ 8b	.	8gg-J 8aa-	.	8ffJ	.	8bbJ 8ddd	.	8fffJ 8ggg-	.
.	.	.	.	.	.	.	.	.	.	.	.	8r	.	8r	.	8r	.	8r	.	8r	.	8r	.
4ryy	.	.	.	.	.	8ryy	.	8ryy	.	8ryy	.	8dL 8a-	.	8fL 8b	.	8gg-L 8aa-	.	8ffL	.	8bbL 8ddd	.	8fffL 8ggg-	.
.	.	.	.	.	.	8ryy	.	8ryy	.	8ryy	.	8dJ 8a-	.	8fJ 8b	.	8gg-J 8aa-	.	8ffJ	.	8bbJ 8ddd	.	8fffJ 8ggg-	.
=	=	=	=	=	=	=	=	=	=	=	=	=	=	=	=	=	=	=	=	=	=	=	=
*-	*-	*-	*-	*-	*-	*-	*-	*-	*-	*-	*-	*-	*-	*-	*-	*-	*-	*-	*-	*-	*-	*-	*-
!!!system-decoration: [(s1[(s2,s3)]s4)][([(s5,s6)][(s7,s8,s9)])][([(s10,s11)]s12)]
